svg/blobs-icons/no-decorations/watering-can.svg

<svg xmlns="http://www.w3.org/2000/svg" xmlns:xlink="http://www.w3.org/1999/xlink" preserveAspectRatio="xMidYMid" width="217" height="194" viewBox="0 0 217 194"><defs><style>.cls-3{fill:#2476ff}.cls-5{fill:#020403;opacity:.25}.cls-7{fill:#ff3a2f}.cls-9{fill:#0cb04a}</style></defs><g id="group-50svg"><path d="M151.934 81.518c18.65-18.65 18.65-48.888.0-67.537-18.65-18.65-48.887-18.65-67.536.0-18.65 18.649-18.65 48.887.0 67.537L92.78 73.135c-14.02-14.02-14.02-36.751.0-50.771 14.02-14.02 36.751-14.02 50.771.0 14.02 14.02 14.02 36.751.0 50.771L151.934 81.518z" id="path-1" class="cls-3" fill-rule="evenodd"/><path d="M60.206 102.687s26.847 26.848 26.847 26.848-36.248 2.59-36.248 2.59.0 14.967.0 14.967S108.749 151.232 108.749 151.232s38.613 38.614 38.613 38.614 69.532-69.532 69.532-69.532-87.157-87.16-87.157-87.16-69.531 69.533-69.531 69.533z" id="path-2" class="cls-3" fill-rule="evenodd"/><path d="M98.683 141.165S50.805 137.746 50.805 137.746s0 9.346.0 9.346S108.749 151.232 108.749 151.232s-10.066-10.067-10.066-10.067z" id="path-3" class="cls-5" fill-rule="evenodd"/><path d="M117.155 45.737s59.444 59.447 59.444 59.447C184.955 113.54 184.955 127.087 176.599 135.443L134.78 177.264s12.582 12.582 12.582 12.582 69.531-69.532 69.531-69.532-87.156-87.16-87.156-87.16-12.582 12.583-12.582 12.583z" id="path-4" class="cls-5" fill-rule="evenodd"/><path d="M53.789 138.48c-4.34-13.359-18.686-20.671-32.045-16.331l15.713 48.376c13.359-4.34 20.671-18.687 16.332-32.045z" id="path-5" class="cls-7" fill-rule="evenodd"/><path d="M53.788 138.48C53.187 136.63 52.378 134.91 51.423 133.306c-.491 10.258-7.18 19.623-17.525 22.983L22.723 121.884C22.397 121.976 22.07 122.042 21.744 122.149l15.713 48.376c13.359-4.34 20.671-18.687 16.331-32.045z" id="path-6" class="cls-5" fill-rule="evenodd"/><path d="M29.425 179.151C30.722 176.598 37.696 172.88 37.696 172.88S38.805 180.705 37.509 183.257C36.212 185.81 33.351 186.96 31.119 185.825 28.886 184.691 28.127 181.703 29.425 179.151z" id="path-7" class="cls-9" fill-rule="evenodd"/><path d="M15.038 171.84C16.336 169.288 23.31 165.571 23.31 165.571S24.419 173.396 23.123 175.948C21.826 178.501 18.965 179.65 16.733 178.516 14.5 177.382 13.742 174.393 15.038 171.84z" id="path-8" class="cls-9" fill-rule="evenodd"/><path d="M.653 164.531C1.95 161.978 8.924 158.261 8.924 158.261S10.033 166.086 8.737 168.639C7.44 171.191 4.579 172.341 2.346 171.207.115 170.073-.644 167.084.653 164.531z" id="path-9" class="cls-9" fill-rule="evenodd"/><path d="M12.734 143.509C13.744 141.577 19.526 139.035 19.526 139.035S20.741 145.233 19.731 147.166C18.722 149.097 16.337 149.845 14.405 148.836 12.473 147.826 11.725 145.441 12.734 143.509z" id="path-10" class="cls-9" fill-rule="evenodd"/><path d="M5.418 189.995C5.418 187.816 9.366 182.886 9.366 182.886S13.314 187.816 13.314 189.995C13.314 192.176 11.546 193.943 9.366 193.943S5.418 192.176 5.418 189.995z" id="path-11" class="cls-9" fill-rule="evenodd"/></g></svg>

<svg xmlns="http://www.w3.org/2000/svg" xmlns:xlink="http://www.w3.org/1999/xlink" preserveAspectRatio="xMidYMid" width="217" height="194" viewBox="0 0 217 194">
  <defs>
    <style>

      .cls-3 {
        fill: #2476ff;
      }

      .cls-5 {
        fill: #020403;
        opacity: 0.25;
      }

      .cls-7 {
        fill: #ff3a2f;
      }

      .cls-9 {
        fill: #0cb04a;
      }
    </style>
  </defs>
  <g id="group-50svg">
    <path d="M151.934,81.518 C170.584,62.868 170.584,32.630 151.934,13.981 C133.284,-4.669 103.047,-4.669 84.398,13.981 C65.748,32.630 65.748,62.868 84.398,81.518 C84.398,81.518 92.780,73.135 92.780,73.135 C78.760,59.115 78.760,36.384 92.780,22.364 C106.800,8.344 129.531,8.344 143.551,22.364 C157.571,36.384 157.571,59.115 143.551,73.135 C143.551,73.135 151.934,81.518 151.934,81.518 Z" id="path-1" class="cls-3" fill-rule="evenodd"/>
    <path d="M60.206,102.687 C60.206,102.687 87.053,129.535 87.053,129.535 C87.053,129.535 50.805,132.125 50.805,132.125 C50.805,132.125 50.805,147.092 50.805,147.092 C50.805,147.092 108.749,151.232 108.749,151.232 C108.749,151.232 147.362,189.846 147.362,189.846 C147.362,189.846 216.894,120.314 216.894,120.314 C216.894,120.314 129.737,33.154 129.737,33.154 C129.737,33.154 60.206,102.687 60.206,102.687 Z" id="path-2" class="cls-3" fill-rule="evenodd"/>
    <path d="M98.683,141.165 C98.683,141.165 50.805,137.746 50.805,137.746 C50.805,137.746 50.805,147.092 50.805,147.092 C50.805,147.092 108.749,151.232 108.749,151.232 C108.749,151.232 98.683,141.165 98.683,141.165 Z" id="path-3" class="cls-5" fill-rule="evenodd"/>
    <path d="M117.155,45.737 C117.155,45.737 176.599,105.184 176.599,105.184 C184.955,113.540 184.955,127.087 176.599,135.443 C176.599,135.443 134.780,177.264 134.780,177.264 C134.780,177.264 147.362,189.846 147.362,189.846 C147.362,189.846 216.893,120.314 216.893,120.314 C216.893,120.314 129.737,33.154 129.737,33.154 C129.737,33.154 117.155,45.737 117.155,45.737 Z" id="path-4" class="cls-5" fill-rule="evenodd"/>
    <path d="M53.789,138.480 C49.449,125.121 35.103,117.809 21.744,122.149 C21.744,122.149 37.457,170.525 37.457,170.525 C50.816,166.185 58.128,151.838 53.789,138.480 Z" id="path-5" class="cls-7" fill-rule="evenodd"/>
    <path d="M53.788,138.480 C53.187,136.630 52.378,134.910 51.423,133.306 C50.932,143.564 44.243,152.929 33.898,156.289 C33.898,156.289 22.723,121.884 22.723,121.884 C22.397,121.976 22.070,122.042 21.744,122.149 C21.744,122.149 37.457,170.525 37.457,170.525 C50.816,166.185 58.128,151.838 53.788,138.480 Z" id="path-6" class="cls-5" fill-rule="evenodd"/>
    <path d="M29.425,179.151 C30.722,176.598 37.696,172.880 37.696,172.880 C37.696,172.880 38.805,180.705 37.509,183.257 C36.212,185.810 33.351,186.960 31.119,185.825 C28.886,184.691 28.127,181.703 29.425,179.151 Z" id="path-7" class="cls-9" fill-rule="evenodd"/>
    <path d="M15.038,171.840 C16.336,169.288 23.310,165.571 23.310,165.571 C23.310,165.571 24.419,173.396 23.123,175.948 C21.826,178.501 18.965,179.650 16.733,178.516 C14.500,177.382 13.742,174.393 15.038,171.840 Z" id="path-8" class="cls-9" fill-rule="evenodd"/>
    <path d="M0.653,164.531 C1.950,161.978 8.924,158.261 8.924,158.261 C8.924,158.261 10.033,166.086 8.737,168.639 C7.440,171.191 4.579,172.341 2.346,171.207 C0.115,170.073 -0.644,167.084 0.653,164.531 Z" id="path-9" class="cls-9" fill-rule="evenodd"/>
    <path d="M12.734,143.509 C13.744,141.577 19.526,139.035 19.526,139.035 C19.526,139.035 20.741,145.233 19.731,147.166 C18.722,149.097 16.337,149.845 14.405,148.836 C12.473,147.826 11.725,145.441 12.734,143.509 Z" id="path-10" class="cls-9" fill-rule="evenodd"/>
    <path d="M5.418,189.995 C5.418,187.816 9.366,182.886 9.366,182.886 C9.366,182.886 13.314,187.816 13.314,189.995 C13.314,192.176 11.546,193.943 9.366,193.943 C7.186,193.943 5.418,192.176 5.418,189.995 Z" id="path-11" class="cls-9" fill-rule="evenodd"/>
  </g>
</svg>
